dist/img/sprites/icon_arrowup.svg

<svg width="36" height="36" viewBox="0 0 36 36" fill="none" xmlns="http://www.w3.org/2000/svg">
<circle cx="18" cy="18" r="18" fill="#A78B73"/>
<path d="M25.7042 19.9739L19.0542 13.3041C18.975 13.225 18.8892 13.1688 18.7969 13.1355C18.7045 13.1023 18.6056 13.0859 18.5 13.0864C18.3944 13.0864 18.2955 13.1028 18.2031 13.1355C18.1108 13.1682 18.025 13.2245 17.9458 13.3041L11.276 19.9739C11.0913 20.1587 10.999 20.3896 10.999 20.6666C10.999 20.9437 11.0979 21.1812 11.2958 21.3791C11.4938 21.5771 11.7247 21.676 11.9885 21.676C12.2524 21.676 12.4833 21.5771 12.6813 21.3791L18.5 15.5604L24.3188 21.3791C24.5035 21.5639 24.7312 21.6562 25.002 21.6562C25.2727 21.6562 25.5068 21.5573 25.7042 21.3594C25.9021 21.1614 26.001 20.9305 26.001 20.6666C26.001 20.4028 25.9021 20.1719 25.7042 19.9739Z" fill="white"/>
</svg>

<svg width="36" height="36" viewBox="0 0 36 36" fill="none" xmlns="http://www.w3.org/2000/svg"><circle cx="18" cy="18" r="18" fill="#A78B73"/><path d="M25.704 19.974l-6.65-6.67a.701.701 0 00-.257-.168.859.859 0 00-.297-.05.883.883 0 00-.297.05.688.688 0 00-.257.168l-6.67 6.67a.94.94 0 00-.277.693.97.97 0 00.297.712.95.95 0 00.693.297.95.95 0 00.692-.297L18.5 15.56l5.819 5.82a.928.928 0 00.683.276c.27 0 .505-.099.702-.297a.95.95 0 00.297-.692.95.95 0 00-.297-.693z" fill="#fff"/></svg>
